build/img/icon-attention.svg

<svg width="20" height="18" viewBox="0 0 20 18" fill="none" xmlns="http://www.w3.org/2000/svg">
<path d="M19.7824 15.5587L11.3896 0.81409C10.7719 -0.271165 9.22838 -0.271561 8.61041 0.81409L0.217518 15.5587C-0.400216 16.644 0.37119 18 1.60713 18H18.3928C19.6283 18 20.4004 16.6444 19.7824 15.5587ZM18.3928 16.5086H1.60713C1.50283 16.5086 1.43865 16.3962 1.49092 16.3044L9.88377 1.55979C9.93592 1.46815 10.0639 1.46795 10.1162 1.55979L18.509 16.3044C18.5612 16.3961 18.4974 16.5086 18.3928 16.5086Z" fill="#9BD2F4"/>
<path d="M9.99887 6.18652C9.59285 6.18652 9.26367 6.52041 9.26367 6.93223V11.2069C9.26367 11.6187 9.59285 11.9526 9.99887 11.9526C10.4049 11.9526 10.7341 11.6187 10.7341 11.2069V6.93223C10.7341 6.52041 10.4049 6.18652 9.99887 6.18652Z" fill="#9BD2F4"/>
<path d="M9.99887 12.9214C9.59285 12.9214 9.26367 13.2553 9.26367 13.6671V14.1124C9.26367 14.5242 9.59285 14.8581 9.99887 14.8581C10.4049 14.8581 10.7341 14.5242 10.7341 14.1124V13.6671C10.7341 13.2552 10.4049 12.9214 9.99887 12.9214Z" fill="#9BD2F4"/>
</svg>

<svg width="20" height="18" fill="none" xmlns="http://www.w3.org/2000/svg"><path d="M19.782 15.559L11.39.814a1.593 1.593 0 00-2.78 0L.218 15.56C-.4 16.644.37 18 1.608 18h16.785c1.235 0 2.007-1.356 1.39-2.441zm-1.39.95H1.608a.135.135 0 01-.116-.205L9.884 1.56a.133.133 0 01.232 0l8.393 14.744a.135.135 0 01-.116.205z" fill="#9BD2F4"/><path d="M9.999 6.187a.74.74 0 00-.735.745v4.275a.74.74 0 00.735.746.74.74 0 00.735-.746V6.932A.74.74 0 0010 6.187zm0 6.734a.74.74 0 00-.735.746v.445a.74.74 0 00.735.746.74.74 0 00.735-.746v-.445a.74.74 0 00-.735-.746z" fill="#9BD2F4"/></svg>
